X: 36412
T: Sean's
R: reel
M: 4/4
K: Gmajor
GA|:BGG2 B2AB|GEE2 GEDB|DEGA BGBd|eBdB A2GA:|
BGG2 B2AB|GEE2 GEDB|DEGA BedB|1 AGAB G2GA:|2 AGAB G2Bc||
|:dggf gedc|BGG2 EGD2|eaag a2ag|eaag fdga|
bgg2 egdc|BGAG E2AB|cedc B2BG|1 ADFA G2Bc:|2 ADFA G2GA||

